X:24
T:Keff s1.2 Kann al Loar 2016
O:Brittany
G:Lark24
Q:1/4=160
M:4/4
L:1/8
C: 
S: https://www.youtube.com/watch?v=2fYyRstD07k 2nd tune
A:Brittany
Q: 1/4=160
P: slightly swung
K:Am
(3edc Bc df ec|dc AG A2e2 | (3edc Bc df ec|dc AG A2A2 || 
|: e(cc)e d2 ec | dc B/A/B c2 cd| ef ed cB AB |dc AG A2A2 :|

